svg/fluentui-system-icons/ic_fluent_calendar_add_20_filled.svg

<svg width="20" height="20" viewBox="0 0 20 20" fill="none" xmlns="http://www.w3.org/2000/svg">
<path d="M17 7V9.59971C16.2499 9.21628 15.4002 9 14.5 9C11.4624 9 9 11.4624 9 14.5C9 15.4002 9.21628 16.2499 9.59971 17H5.5C4.11929 17 3 15.8807 3 14.5V7H17ZM14.5 3C15.8807 3 17 4.11929 17 5.5V6H3V5.5C3 4.11929 4.11929 3 5.5 3H14.5ZM19 14.5C19 16.9853 16.9853 19 14.5 19C12.0147 19 10 16.9853 10 14.5C10 12.0147 12.0147 10 14.5 10C16.9853 10 19 12.0147 19 14.5ZM15 12.5C15 12.2239 14.7761 12 14.5 12C14.2239 12 14 12.2239 14 12.5V14H12.5C12.2239 14 12 14.2239 12 14.5C12 14.7761 12.2239 15 12.5 15H14V16.5C14 16.7761 14.2239 17 14.5 17C14.7761 17 15 16.7761 15 16.5V15H16.5C16.7761 15 17 14.7761 17 14.5C17 14.2239 16.7761 14 16.5 14H15V12.5Z" fill="#212121"/>
</svg>

<svg xmlns="http://www.w3.org/2000/svg" width="20" height="20"><path d="M17 7v2.6A5.5 5.5 0 0 0 9.6 17H5.5A2.5 2.5 0 0 1 3 14.5V7h14Zm-2.5-4A2.5 2.5 0 0 1 17 5.5V6H3v-.5A2.5 2.5 0 0 1 5.5 3h9ZM19 14.5a4.5 4.5 0 1 1-9 0 4.5 4.5 0 0 1 9 0Zm-4-2a.5.5 0 0 0-1 0V14h-1.5a.5.5 0 0 0 0 1H14v1.5a.5.5 0 0 0 1 0V15h1.5a.5.5 0 0 0 0-1H15v-1.5Z"/></svg>
